packages/icons/svg/Service_Tools_Comparator_48px.svg

<svg xmlns="http://www.w3.org/2000/svg" viewBox="0 0 48 48"><path d="M42.5 27H42l-4.51-10.55 4.69 1h.32a1.5 1.5 0 00.32-3l-14.38-3.1a4.48 4.48 0 00-2.94-3.57V5.5a1.5 1.5 0 00-3 0v2.28a4.43 4.43 0 00-2.31 1.86L5.82 6.53a1.5 1.5 0 00-.64 2.94l5.65 1.22L6.05 22H5.5A1.5 1.5 0 004 23.5a8 8 0 0016 0 1.5 1.5 0 00-1.5-1.5H18l-4.6-10.76 6.16 1.33a4.48 4.48 0 002.94 3.65V41H16a1.5 1.5 0 000 3h16a1.5 1.5 0 000-3h-6.5V16.22a4.43 4.43 0 002.31-1.86l7 1.5L30.05 27h-.55a1.5 1.5 0 00-1.5 1.5 8 8 0 0016 0 1.5 1.5 0 00-1.5-1.5zM12 28.5A5 5 0 017.23 25h9.54A5 5 0 0112 28.5zM8.22 22L12 13.07 15.78 22zM22.5 12a1.5 1.5 0 111.5 1.5 1.5 1.5 0 01-1.5-1.5zM36 18.07L39.78 27h-7.56zm0 15.43a5 5 0 01-4.77-3.5h9.54A5 5 0 0136 33.5z"/></svg>

<svg xmlns="http://www.w3.org/2000/svg" viewBox="0 0 48 48"><defs></defs><g id="Icon"><path  d="M42.5,27H42L37.49,16.45l4.69,1,.32,0a1.5,1.5,0,0,0,.32-3l-14.38-3.1A4.48,4.48,0,0,0,25.5,7.78V5.5a1.5,1.5,0,0,0-3,0V7.78a4.43,4.43,0,0,0-2.31,1.86L5.82,6.53a1.5,1.5,0,0,0-.64,2.94l5.65,1.22L6.05,22H5.5A1.5,1.5,0,0,0,4,23.5a8,8,0,0,0,16,0A1.5,1.5,0,0,0,18.5,22H18L13.4,11.24l6.16,1.33a4.48,4.48,0,0,0,2.94,3.65V41H16a1.5,1.5,0,0,0,0,3H32a1.5,1.5,0,0,0,0-3H25.5V16.22a4.43,4.43,0,0,0,2.31-1.86l7,1.5L30.05,27H29.5A1.5,1.5,0,0,0,28,28.5a8,8,0,0,0,16,0A1.5,1.5,0,0,0,42.5,27ZM12,28.5A5,5,0,0,1,7.23,25h9.54A5,5,0,0,1,12,28.5ZM8.22,22,12,13.07,15.78,22ZM22.5,12A1.5,1.5,0,1,1,24,13.5,1.5,1.5,0,0,1,22.5,12ZM36,18.07,39.78,27H32.22ZM36,33.5A5,5,0,0,1,31.23,30h9.54A5,5,0,0,1,36,33.5Z"/></g></svg>
